packages/core/src/svgs/xrp.svg

<svg width="24" height="24" viewBox="0 0 24 24" fill="none" xmlns="http://www.w3.org/2000/svg">
<g clip-path="url(#clip0_31_21011)">
<path d="M0 0H24V24H0V0Z" fill="url(#paint0_linear_31_21011)"/>
<path d="M16.8461 6H18.8308L14.7019 10.4049C14.3541 10.7724 13.9353 11.0657 13.471 11.2669C13.0066 11.4682 12.5063 11.5732 12.0002 11.5757C11.4941 11.5732 10.9938 11.4682 10.5295 11.2669C10.0651 11.0657 9.64636 10.7724 9.29849 10.4049L5.16278 6H7.15435L10.2876 9.37414C11.2052 10.3474 12.7952 10.3474 13.7128 9.37414L16.8461 6ZM7.12735 17.9931H5.14307L9.29807 13.6016C9.64656 13.2339 10.0659 12.9406 10.5308 12.7393C10.9958 12.5381 11.4966 12.4331 12.0032 12.4307C12.5098 12.4332 13.0107 12.5382 13.4756 12.7395C13.9406 12.9408 14.3599 13.2342 14.7084 13.602L18.8574 18H16.8726L13.7196 14.6391C12.8016 13.6663 11.2121 13.6663 10.2945 14.6391L7.12778 17.9931H7.12735Z" fill="white"/>
</g>
<defs>
<linearGradient id="paint0_linear_31_21011" x1="4.46486" y1="4.16229" x2="29.2059" y2="32.5787" gradientUnits="userSpaceOnUse">
<stop stop-color="#1A1E21"/>
<stop offset="1" stop-color="#06060A"/>
</linearGradient>
<clipPath id="clip0_31_21011">
<rect width="24" height="24" fill="white"/>
</clipPath>
</defs>
</svg>

<svg xmlns="http://www.w3.org/2000/svg" width="24" height="24" fill="none" viewBox="0 0 24 24"><g clip-path="url(#a)"><path fill="url(#b)" d="M0 0h24v24H0z"/><path fill="#fff" d="M16.846 6h1.985l-4.13 4.405a3.75 3.75 0 0 1-2.7 1.17 3.74 3.74 0 0 1-2.703-1.17L5.163 6h1.991l3.134 3.374c.917.973 2.507.973 3.425 0zM7.127 17.993H5.143l4.155-4.391a3.75 3.75 0 0 1 2.705-1.171 3.75 3.75 0 0 1 2.705 1.171L18.858 18h-1.985l-3.153-3.36c-.918-.974-2.508-.974-3.426 0z"/></g><defs><linearGradient id="b" x1="4.465" x2="29.206" y1="4.162" y2="32.579" gradientUnits="userSpaceOnUse"><stop stop-color="#1A1E21"/><stop offset="1" stop-color="#06060A"/></linearGradient><clipPath id="a"><path fill="#fff" d="M0 0h24v24H0z"/></clipPath></defs></svg>
